static/cards/FrenchDeck/default/card_hearts_05.svg

<svg width="219" height="304" viewBox="0 0 219 304" fill="none" xmlns="http://www.w3.org/2000/svg">
<g filter="url(#filter0_d_18_653)">
<g clip-path="url(#clip0_18_653)">
<rect x="8" y="4" width="203" height="288" rx="10" fill="white"/>
<path d="M16.1113 38.5547C16.1113 37.5537 16.6919 36.873 17.5728 36.873C18.2534 36.873 18.6938 37.2334 19.2144 38.2544C20.3154 40.3965 22.1572 41.5576 24.5596 41.5576C28.2031 41.5576 30.7456 38.9951 30.7456 35.3115C30.7456 31.7881 28.2832 29.3057 24.8198 29.3057C23.2583 29.3057 21.877 29.8262 20.7158 30.8672C19.2544 32.2285 18.854 32.4688 18.2134 32.4688C17.0723 32.4688 16.4917 31.5679 16.5918 30.0264L17.4727 18.8154C17.5928 17.334 18.4536 16.6333 20.1753 16.6333H31.4062C32.5674 16.6333 33.248 17.2139 33.248 18.1948C33.248 19.1558 32.5874 19.6963 31.4062 19.6963H20.6157L19.855 28.605H20.0552C20.9561 27.2637 23.2983 26.3027 25.6006 26.3027C30.6855 26.3027 34.269 29.9463 34.269 35.1313C34.269 40.6567 30.2852 44.5806 24.6997 44.5806C19.4146 44.5806 16.1113 41.3574 16.1113 38.5547Z" fill="#BC1E24"/>
<path d="M21.7347 53.0006C24.4518 53.042 25.5069 55.3984 25.8537 56.5094C25.8888 56.6218 26.1122 56.6217 26.1472 56.5093C26.4938 55.3983 27.5482 53.042 30.2653 53.0006C33.8229 52.9462 36.4995 56.9292 34.0587 60.9289C31.8832 64.4939 26.0821 71 26 71C25.9165 71 20.1169 64.4943 17.9413 60.9289C15.5005 56.9291 18.177 52.9462 21.7347 53.0006Z" fill="#BC1E24"/>
<path d="M202.889 257.445C202.889 258.446 202.308 259.127 201.427 259.127C200.747 259.127 200.306 258.767 199.786 257.746C198.685 255.604 196.843 254.442 194.44 254.442C190.797 254.442 188.254 257.005 188.254 260.688C188.254 264.212 190.717 266.694 194.18 266.694C195.742 266.694 197.123 266.174 198.284 265.133C199.746 263.771 200.146 263.531 200.787 263.531C201.928 263.531 202.508 264.432 202.408 265.974L201.527 277.185C201.407 278.666 200.546 279.367 198.825 279.367L187.594 279.367C186.433 279.367 185.752 278.786 185.752 277.805C185.752 276.844 186.413 276.304 187.594 276.304L198.384 276.304L199.145 267.395L198.945 267.395C198.044 268.736 195.702 269.697 193.399 269.697C188.314 269.697 184.731 266.054 184.731 260.869C184.731 255.343 188.715 251.419 194.3 251.419C199.585 251.419 202.889 254.643 202.889 257.445Z" fill="#BC1E24"/>
<path d="M197.265 242.999C194.548 242.958 193.493 240.602 193.146 239.491C193.111 239.378 192.888 239.378 192.853 239.491C192.506 240.602 191.452 242.958 188.735 242.999C185.177 243.054 182.501 239.071 184.941 235.071C187.117 231.506 192.918 225 193 225C193.083 225 198.883 231.506 201.059 235.071C203.499 239.071 200.823 243.054 197.265 242.999Z" fill="#BC1E24"/>
<path d="M55.2207 30.2514C61.7689 30.3516 64.3116 36.0461 65.1476 38.731C65.2321 39.0026 65.7704 39.0025 65.8549 38.7309C66.6901 36.0459 69.2313 30.3516 75.7794 30.2514C84.3533 30.1199 90.8039 39.7455 84.9216 49.4115C79.6786 58.0269 65.6979 73.75 65.5 73.75C65.2989 73.7499 51.3219 58.0278 46.0785 49.4115C40.1963 39.7454 46.6467 30.1199 55.2207 30.2514Z" fill="#BC1E24"/>
<path d="M55.2207 265.749C61.7689 265.648 64.3116 259.954 65.1476 257.269C65.2321 256.997 65.7704 256.997 65.8549 257.269C66.6901 259.954 69.2313 265.648 75.7794 265.749C84.3533 265.88 90.8039 256.255 84.9216 246.589C79.6786 237.973 65.6979 222.25 65.5 222.25C65.2989 222.25 51.3219 237.972 46.0785 246.589C40.1963 256.255 46.6467 265.88 55.2207 265.749Z" fill="#BC1E24"/>
<path d="M143.221 30.2514C149.769 30.3516 152.312 36.0461 153.148 38.731C153.232 39.0026 153.77 39.0025 153.855 38.7309C154.69 36.0459 157.231 30.3516 163.779 30.2514C172.353 30.1199 178.804 39.7455 172.922 49.4115C167.679 58.0269 153.698 73.75 153.5 73.75C153.299 73.7499 139.322 58.0278 134.079 49.4115C128.196 39.7454 134.647 30.1199 143.221 30.2514Z" fill="#BC1E24"/>
<path d="M99.2207 126.251C105.769 126.352 108.312 132.046 109.148 134.731C109.232 135.003 109.77 135.003 109.855 134.731C110.69 132.046 113.231 126.352 119.779 126.251C128.353 126.12 134.804 135.745 128.922 145.411C123.679 154.027 109.698 169.75 109.5 169.75C109.299 169.75 95.3219 154.028 90.0785 145.411C84.1963 135.745 90.6467 126.12 99.2207 126.251Z" fill="#BC1E24"/>
<path d="M143.221 265.749C149.769 265.648 152.312 259.954 153.148 257.269C153.232 256.997 153.77 256.997 153.855 257.269C154.69 259.954 157.231 265.648 163.779 265.749C172.353 265.88 178.804 256.255 172.922 246.589C167.679 237.973 153.698 222.25 153.5 222.25C153.299 222.25 139.322 237.972 134.079 246.589C128.196 256.255 134.647 265.88 143.221 265.749Z" fill="#BC1E24"/>
</g>
</g>
<defs>
<filter id="filter0_d_18_653" x="0" y="0" width="219" height="304" filterUnits="userSpaceOnUse" color-interpolation-filters="sRGB">
<feFlood flood-opacity="0" result="BackgroundImageFix"/>
<feColorMatrix in="SourceAlpha" type="matrix" values="0 0 0 0 0 0 0 0 0 0 0 0 0 0 0 0 0 0 127 0" result="hardAlpha"/>
<feOffset dy="4"/>
<feGaussianBlur stdDeviation="4"/>
<feComposite in2="hardAlpha" operator="out"/>
<feColorMatrix type="matrix" values="0 0 0 0 0.614771 0 0 0 0 0.70094 0 0 0 0 0.806257 0 0 0 1 0"/>
<feBlend mode="normal" in2="BackgroundImageFix" result="effect1_dropShadow_18_653"/>
<feBlend mode="normal" in="SourceGraphic" in2="effect1_dropShadow_18_653" result="shape"/>
</filter>
<clipPath id="clip0_18_653">
<rect x="8" y="4" width="203" height="288" rx="10" fill="white"/>
</clipPath>
</defs>
</svg>

<svg xmlns="http://www.w3.org/2000/svg" width="219" height="304" fill="none" viewBox="0 0 219 304"><g filter="url(#a)"><g clip-path="url(#b)"><rect width="203" height="288" x="8" y="4" fill="#fff" rx="10"/><path fill="#bc1e24" d="M16.111 38.555c0-1.001.58-1.682 1.462-1.682.68 0 1.12.36 1.641 1.381 1.101 2.143 2.943 3.304 5.346 3.304 3.643 0 6.186-2.563 6.186-6.246 0-3.524-2.463-6.006-5.926-6.006-1.562 0-2.943.52-4.104 1.561-1.462 1.361-1.862 1.602-2.503 1.602-1.14 0-1.721-.901-1.621-2.443l.88-11.21c.12-1.482.982-2.183 2.703-2.183h11.231c1.161 0 1.842.58 1.842 1.562 0 .96-.66 1.501-1.842 1.501h-10.79l-.761 8.909h.2c.901-1.341 3.243-2.302 5.546-2.302 5.085 0 8.668 3.643 8.668 8.828 0 5.526-3.984 9.45-9.57 9.45-5.284 0-8.588-3.224-8.588-6.026M21.735 53c2.717.042 3.772 2.398 4.119 3.51.035.112.258.112.293 0 .347-1.112 1.401-3.468 4.118-3.51 3.558-.054 6.234 3.93 3.794 7.929C31.883 64.494 26.082 71 26 71c-.084 0-5.883-6.506-8.059-10.071-2.44-4 .236-7.983 3.794-7.928M202.889 257.445c0 1.001-.581 1.682-1.462 1.682-.68 0-1.121-.36-1.641-1.381-1.101-2.142-2.943-3.304-5.346-3.304-3.643 0-6.186 2.563-6.186 6.246 0 3.524 2.463 6.006 5.926 6.006 1.562 0 2.943-.52 4.104-1.561 1.462-1.362 1.862-1.602 2.503-1.602 1.141 0 1.721.901 1.621 2.443l-.881 11.211c-.12 1.481-.981 2.182-2.702 2.182h-11.231c-1.161 0-1.842-.581-1.842-1.562 0-.961.661-1.501 1.842-1.501h10.79l.761-8.909h-.2c-.901 1.341-3.243 2.302-5.546 2.302-5.085 0-8.668-3.643-8.668-8.828 0-5.526 3.984-9.45 9.569-9.45 5.285 0 8.589 3.224 8.589 6.026M197.265 242.999c-2.717-.041-3.772-2.397-4.119-3.508-.035-.113-.258-.113-.293 0-.347 1.111-1.401 3.467-4.118 3.508-3.558.055-6.234-3.928-3.794-7.928C187.117 231.506 192.918 225 193 225c.083 0 5.883 6.506 8.059 10.071 2.44 4-.236 7.983-3.794 7.928M55.22 30.251c6.549.1 9.092 5.795 9.928 8.48.084.272.622.271.707 0 .835-2.685 3.376-8.38 9.924-8.48 8.574-.131 15.025 9.494 9.143 19.16C79.679 58.027 65.698 73.75 65.5 73.75c-.201 0-14.178-15.722-19.421-24.339-5.883-9.666.568-19.291 9.142-19.16M55.22 265.749c6.549-.101 9.092-5.795 9.928-8.48.084-.272.622-.272.707 0 .835 2.685 3.376 8.379 9.924 8.48 8.574.131 15.025-9.494 9.143-19.16-5.243-8.616-19.224-24.339-19.422-24.339-.201 0-14.178 15.722-19.421 24.339-5.883 9.666.568 19.291 9.142 19.16M143.221 30.251c6.548.1 9.091 5.795 9.927 8.48.084.272.622.271.707 0 .835-2.685 3.376-8.38 9.924-8.48 8.574-.131 15.025 9.494 9.143 19.16-5.243 8.616-19.224 24.339-19.422 24.339-.201 0-14.178-15.722-19.421-24.339-5.883-9.666.568-19.291 9.142-19.16M99.22 126.251c6.549.101 9.092 5.795 9.928 8.48.084.272.622.272.707 0 .835-2.685 3.376-8.379 9.924-8.48 8.574-.131 15.025 9.494 9.143 19.16-5.243 8.616-19.224 24.339-19.422 24.339-.201 0-14.178-15.722-19.421-24.339-5.883-9.666.568-19.291 9.142-19.16M143.221 265.749c6.548-.101 9.091-5.795 9.927-8.48.084-.272.622-.272.707 0 .835 2.685 3.376 8.379 9.924 8.48 8.574.131 15.025-9.494 9.143-19.16-5.243-8.616-19.224-24.339-19.422-24.339-.201 0-14.178 15.722-19.421 24.339-5.883 9.666.568 19.291 9.142 19.16"/></g></g><defs><clipPath id="b"><rect width="203" height="288" x="8" y="4" fill="#fff" rx="10"/></clipPath><filter id="a" width="219" height="304" x="0" y="0" color-interpolation-filters="sRGB" filterUnits="userSpaceOnUse"><feFlood flood-opacity="0" result="BackgroundImageFix"/><feColorMatrix in="SourceAlpha" result="hardAlpha" values="0 0 0 0 0 0 0 0 0 0 0 0 0 0 0 0 0 0 127 0"/><feOffset dy="4"/><feGaussianBlur stdDeviation="4"/><feComposite in2="hardAlpha" operator="out"/><feColorMatrix values="0 0 0 0 0.614771 0 0 0 0 0.70094 0 0 0 0 0.806257 0 0 0 1 0"/><feBlend in2="BackgroundImageFix" result="effect1_dropShadow_18_653"/><feBlend in="SourceGraphic" in2="effect1_dropShadow_18_653" result="shape"/></filter></defs></svg>
